assets/images/controls/mute.svg

<?xml version="1.0" encoding="UTF-8" standalone="no"?>
<svg
   xmlns:svg="http://www.w3.org/2000/svg"
   xmlns="http://www.w3.org/2000/svg"
   xmlns:sodipodi="http://sodipodi.sourceforge.net/DTD/sodipodi-0.dtd"
   xmlns:inkscape="http://www.inkscape.org/namespaces/inkscape"
   id="svg2"
   version="1.1"
   inkscape:version="0.91 r13725"
   sodipodi:docname="mute.svg"
   height="48"
   width="48">
  <sodipodi:namedview
     pagecolor="#000000"
     bordercolor="#666666"
     borderopacity="1"
     objecttolerance="10"
     gridtolerance="10"
     guidetolerance="10"
     inkscape:pageopacity="0"
     inkscape:pageshadow="2"
     inkscape:window-width="1920"
     inkscape:window-height="1032"
     id="namedview14"
     showgrid="false"
     showguides="true"
     inkscape:guide-bbox="true"
     inkscape:zoom="6.675088"
     inkscape:cx="18.308073"
     inkscape:cy="38.058799"
     inkscape:window-x="0"
     inkscape:window-y="25"
     inkscape:window-maximized="1"
     inkscape:current-layer="svg2" />
  <defs
     id="defs4" />
  <path
     style="fill:#ffffff;stroke:none"
     inkscape:connector-curvature="0"
     id="path8"
     d="m 42.849997,0 c 3.43333,0 5.15,1.73333 5.15,5.2 l 0,37.85 c -0.0667,3.3 -1.78333,4.95 -5.15,4.95 L 5.2,48 C 1.8,48 0.066667,46.35 0,43.05 L 0,5.2 C 0,1.73333 1.733333,0 5.2,0 L 42.849997,0 M 26.35,13 l 1.4,0 0,8.95 0.3,0.25 c 0.63333,0.63333 0.95,1.4 0.95,2.3 0,0.86667 -0.31667,1.6 -0.95,2.2 l -0.3,0.35 0,8.95 -1.4,0 -9.55,-8.8 c -0.466667,0.33333 -1.016667,0.5 -1.65,0.5 -0.866667,0 -1.616667,-0.33333 -2.25,-1 -0.6,-0.6 -0.9,-1.33333 -0.9,-2.2 0,-0.9 0.3,-1.66667 0.9,-2.3 0.633333,-0.6 1.383333,-0.9 2.25,-0.9 0.633333,0 1.2,0.15 1.7,0.45 L 26.35,13 M 44.999997,5.2 c 0,-1.46667 -0.71667,-2.2 -2.15,-2.2 L 5.2,3 C 3.733333,3 3,3.73333 3,5.2 L 3,43.05 C 3.06667,44.35 3.8,45 5.2,45 l 37.649997,0 c 1.4,0 2.11667,-0.66667 2.15,-2 l 0,-37.8"
     sodipodi:nodetypes="cscsscsscccccscccccscscscccssscsscc" />
</svg>

<?xml version="1.0" encoding="UTF-8" standalone="no"?>
<svg id="svg2" width="48" xmlns="http://www.w3.org/2000/svg" version="1.1" height="48">
 <path id="path8" fill="#fff" d="m42.85 0c3.4333 0 5.15 1.7333 5.15 5.2v37.85c-0.0667 3.3-1.7833 4.95-5.15 4.95h-37.65c-3.4 0-5.1333-1.65-5.2-4.95v-37.85c0-3.4667 1.7333-5.2 5.2-5.2h37.65m-16.5 13h1.4v8.95l0.3 0.25c0.63333 0.63333 0.95 1.4 0.95 2.3 0 0.86667-0.31667 1.6-0.95 2.2l-0.3 0.35v8.95h-1.4l-9.55-8.8c-0.46667 0.33333-1.0167 0.5-1.65 0.5-0.86667 0-1.6167-0.33333-2.25-1-0.6-0.6-0.9-1.3333-0.9-2.2 0-0.9 0.3-1.6667 0.9-2.3 0.63333-0.6 1.3833-0.9 2.25-0.9 0.63333 0 1.2 0.15 1.7 0.45l9.5-8.75m18.65-7.8c0-1.4667-0.71667-2.2-2.15-2.2h-37.65c-1.4667 0-2.2 0.7333-2.2 2.2v37.85c0.0667 1.3 0.8 1.95 2.2 1.95h37.65c1.4 0 2.1167-0.66667 2.15-2v-37.8"/>
</svg>
